X:965
T:Eight Step Polka, The
S:Donegal Fiddle Tutor Vol.3
Z:Nigel Gatherer
L:1/8
M:4/4
K:D
(ABc | d2 d2 d2 d2 | cdec dcBA | f2 f2 f2 f2 | efge f2 d2 |
fgaf e2 e2 | fgaf d2 d2 | efge c2 c2 | B2 A2 B2 A2 |
fgaf e2 e2 | fgaf d2 d2 | B2 g2 e2 d2 | Bgec dcBA :|
<end>
<start>
